azure-patterns/svg-three-computers-connected-one.svg

<svg xmlns="http://www.w3.org/2000/svg" viewBox="0 0 49 49">
                                
                            
	<path d="M25.2492 25.0299V17.3301H23.9869V25.0299H7.05566V36.6008H8.31794V26.2922H23.9869V34.6653H25.2492V26.2922H40.9014V36.6008H42.1637V25.0299H25.2492Z" fill="#50E6FF"></path>
	<path d="M14.5706 42.6854V33.8242H1.93102V42.6854H0.719238V43.9476H15.7824V42.6854H14.5706Z" fill="#0078D4"></path>
	<path d="M13.4765 35.0107H3.0249V42.7527H13.4765V35.0107Z" fill="#50E6FF"></path>
	<path d="M47.3557 42.6854V33.8242H34.7162V42.6854H33.5044V43.9476H48.5675V42.6854H47.3557Z" fill="#0078D4"></path>
	<path d="M46.2617 35.0107H35.8101V42.7527H46.2617V35.0107Z" fill="#50E6FF"></path>
	<path d="M30.9465 42.6854V33.8242H18.307V42.6854H17.0952V43.9476H32.1583V42.6854H30.9465Z" fill="#0078D4"></path>
	<path d="M29.8525 35.0107H19.4009V42.7527H29.8525V35.0107Z" fill="#50E6FF"></path>
	<path d="M30.9378 17.5242V8.66309H18.2982V17.5242H17.0864V18.7865H32.1495V17.5242H30.9378Z" fill="#0078D4"></path>
	<path d="M29.8442 9.84961H19.3926V17.5915H29.8442V9.84961Z" fill="#50E6FF"></path>
	<path d="M20.7133 13.3927C20.747 11.9621 21.7652 11.5414 22.5647 11.5414C23.1537 11.5414 23.6418 11.7686 24.2225 12.3408C24.2898 12.4081 24.4497 12.5764 24.4497 12.5764L23.9279 13.2833C23.9279 13.2833 23.7849 13.1066 23.7175 13.0224C23.2295 12.4334 22.977 12.2651 22.4637 12.2651C21.7905 12.2566 21.4118 12.9383 21.437 13.5189C21.4623 14.108 21.9335 14.5119 22.4553 14.5119C22.9013 14.5119 23.4483 14.2763 24.071 13.46C24.1635 13.3422 24.2561 13.1991 24.3571 13.0477C24.4244 12.9299 24.5086 12.8205 24.5843 12.7195C25.2491 11.8191 25.8718 11.5414 26.545 11.5245C27.2098 11.5161 28.4132 11.9958 28.4132 13.3759C28.4132 14.7559 27.3613 15.2272 26.5619 15.2272C25.9139 15.2272 25.4006 14.9663 24.7526 14.2594C24.7274 14.2342 24.6937 14.1921 24.6937 14.1921L25.1902 13.5526C25.1902 13.5526 25.2154 13.5862 25.2407 13.6031C25.8213 14.3268 26.1159 14.4782 26.6713 14.4867C27.3445 14.4951 27.7232 13.8134 27.6979 13.2328C27.6727 12.6522 27.2014 12.2398 26.6797 12.2398C26.2337 12.2398 25.6867 12.4754 25.064 13.2917C24.9714 13.4095 24.8788 13.5526 24.7779 13.704C24.7105 13.8219 24.6264 13.9313 24.5422 14.0238C23.8438 14.9242 23.0275 15.2019 22.5899 15.2188C21.6222 15.2693 20.6628 14.7559 20.7133 13.3927Z" fill="#0078D4"></path>
	<path d="M8.25085 36.4326L5.70947 38.974H7.62813V41.4817H8.89881V38.974H10.7922L8.25085 36.4326Z" fill="#0078D4"></path>
	<path d="M24.6268 36.4326L22.0854 38.974H24.0041V41.4817H25.2748V38.974H27.1682L24.6268 36.4326Z" fill="#0078D4"></path>
	<path d="M41.0365 36.4326L38.4951 38.974H40.4222V41.4817H41.6929V38.974H43.5779L41.0365 36.4326Z" fill="#0078D4"></path>
</svg>

<svg xmlns="http://www.w3.org/2000/svg" viewBox="0 0 49 49"><path d="M25.25 25.03v-7.7h-1.263v7.7H7.056V36.6h1.262V26.293h15.669v8.373h1.262v-8.373h15.652v10.309h1.263V25.03H25.249z" fill="#50E6FF"/><path d="M14.57 42.685v-8.86H1.932v8.86H.719v1.263h15.063v-1.263h-1.211z" fill="#0078D4"/><path d="M13.476 35.01H3.025v7.743h10.451V35.01z" fill="#50E6FF"/><path d="M47.356 42.685v-8.86h-12.64v8.86h-1.212v1.263h15.064v-1.263h-1.212z" fill="#0078D4"/><path d="M46.262 35.01H35.81v7.743h10.452V35.01z" fill="#50E6FF"/><path d="M30.947 42.685v-8.86h-12.64v8.86h-1.212v1.263h15.063v-1.263h-1.212z" fill="#0078D4"/><path d="M29.852 35.01H19.401v7.743h10.451V35.01z" fill="#50E6FF"/><path d="M30.938 17.524v-8.86h-12.64v8.86h-1.212v1.262H32.15v-1.262h-1.212z" fill="#0078D4"/><path d="M29.844 9.85H19.393v7.742h10.451V9.85z" fill="#50E6FF"/><path d="M20.713 13.393c.034-1.43 1.052-1.852 1.852-1.852.589 0 1.077.228 1.657.8.068.067.228.235.228.235l-.522.707-.21-.26c-.488-.59-.741-.758-1.254-.758-.673-.008-1.052.673-1.027 1.254.025.589.496.993 1.018.993.446 0 .993-.236 1.616-1.052.092-.118.185-.26.286-.412.067-.118.152-.228.227-.329.665-.9 1.288-1.178 1.961-1.194.665-.009 1.868.47 1.868 1.85 0 1.38-1.052 1.852-1.851 1.852-.648 0-1.161-.26-1.81-.968a1.027 1.027 0 0 1-.058-.067l.496-.64s.025.034.05.051c.581.724.876.875 1.431.884.674.008 1.052-.674 1.027-1.254a1.027 1.027 0 0 0-1.018-.993c-.446 0-.993.235-1.616 1.052-.093.117-.185.26-.286.412a1.845 1.845 0 0 1-.236.32c-.698.9-1.515 1.178-1.952 1.195-.968.05-1.927-.463-1.877-1.826zM8.25 36.433l-2.54 2.541h1.918v2.508h1.27v-2.508h1.894l-2.541-2.541zM24.627 36.433l-2.542 2.541h1.92v2.508h1.27v-2.508h1.893l-2.541-2.541zM41.036 36.433l-2.54 2.541h1.926v2.508h1.27v-2.508h1.886l-2.542-2.541z" fill="#0078D4"/></svg>
